X: 7
T: Cooley's
R: reel
M: 4/4
L: 1/8
K: Edor
ED|"Em"EBBA B2 EB|"Em"B2 AB dBAG|"D"(3FED AD BDAD|"D"(3FED AD BAGF|
"Em"EBBA B2 EB|"Em" B2 AB defg|"D" afec dBAF|"D"DEFD "Em"E2:|
|:gf|"Em"eB~B2 eBgf|"Em"eB~B2 gedB|"D"~A2 FA DAFA|"D"~A2 FA defg|
"Em"eBB2 eBgf|"Em"eBB2 defg|"D"afec dBAF|"D"DEFD "Em"E2:|

%%newpage
%% header "Pizza Wizards - Spootiskerry / Catharsis		$P"

